icons/1_Primary/AList.svg

<svg xmlns="http://www.w3.org/2000/svg" width="1024" height="1024" fill="none">
   <g clip-path="url(#a)">
      <path fill="#70C6BE" d="M512 1024c282.77 0 512-229.23 512-512S794.77 0 512 0 0 229.23 0 512s229.23 512 512 512Z"/>
      <path fill="#fff" d="M516.67 248.24c5.59-.64 11.4.61 16.07 3.8 7.03 4.54 12.01 11.48 16.22 18.58 19.09 31.99 38.3 63.9 57.37 95.9 25.4 42.78 50.81 85.56 76.14 128.39 17.53 29.62 35.1 59.23 52.75 88.78 11.62 19.74 23.61 39.28 34.72 59.32 4.79 8.39 7.42 18.07 7.02 27.76-.28 7.49-1.64 15.18-5.57 21.67-5.52 9.15-14.76 15.61-24.78 18.98-5.35 1.92-10.96 3.23-16.66 3.24-62.22-.02-124.43.02-186.65.01-5.35-.14-10.79-.75-15.81-2.69-3.67-1.57-7.29-3.49-10.16-6.31-4.9-4.85-8.08-11.74-7.23-18.73.44-4.89 1.64-9.7 3.65-14.18 1.95-4.59 4.7-8.78 7.08-13.15 10.41-18.56 21.3-36.84 32.64-54.85 3.63-5.67 6.79-11.79 11.81-16.4 5.34-4.89 12.04-8.72 19.38-9.22 5.9-.24 11.7 1.8 16.62 4.96 5.55 3.25 9.92 8.67 11.38 14.99 2.11 8-.16 16.4-3.55 23.71-3.8 8.3-9.23 15.83-12.14 24.53-.53 1.98-1.25 4.48.23 6.22 1.5 1.41 3.58 1.97 5.53 2.45 5.64 1.26 11.46.93 17.2.97h63.48c4.19-.07 8.38.14 12.57-.1 3.02-.35 6.32-.84 8.67-2.95 1.55-1.37 1.74-3.69 1.16-5.57-1.29-4.17-3.51-7.96-5.7-11.7-56.42-96.35-112.52-192.88-169.53-288.89-1.86-3.08-3.46-6.43-6.13-8.92-1.32-1.26-3.27-1.98-5.06-1.46-1.53.55-2.56 1.89-3.58 3.09-2.51 3.2-4.76 6.61-6.82 10.12-9.82 15.96-19.22 32.18-28.85 48.26-55.44 93.3-110.88 186.6-166.31 279.9-3.44 6.33-7.1 12.54-11.08 18.54-3.5 5.15-7.75 9.98-13.23 13.09-6.46 3.73-14.43 5.21-21.67 3.08-5.28-1.63-10.39-4.29-14.17-8.39-4.79-4.74-6.91-11.68-6.66-18.31.24-6.99 2.58-13.8 6.1-19.8 33.66-57.17 67.53-114.22 101.53-171.19 17.49-29.53 34.9-59.1 52.49-88.57 17.79-29.86 35.63-59.69 53.34-89.59 9.88-16.84 19.84-33.65 30.22-50.19 3.19-5.24 7.33-9.94 12.3-13.57 4.08-2.78 8.66-5.17 13.66-5.61h.01Zm-2.83 220.99c8.38-1.35 17.27.65 24.22 5.54 5.28 4.07 8.94 10.18 10 16.76.72 5.02.23 10.23-1.62 14.97-1.42 4.1-3.46 7.97-5.72 11.67-32.33 54.35-64.65 108.7-96.99 163.04-4.14 6.8-7.91 13.86-12.68 20.25-3.47 4.28-7.8 7.92-12.79 10.29-10.57 5.63-24.35 2.2-32.39-6.27-4.07-4.09-6.46-9.7-6.77-15.44-.46-5.94.85-11.95 3.54-17.25 2.37-5.15 5.16-10.09 8.08-14.94 14.21-23.9 28.29-47.89 42.46-71.81 19.39-32.9 39.1-65.62 58.61-98.45 2.07-3.73 4.66-7.18 7.57-10.3 3.92-3.98 8.89-7.19 14.48-8.07v.01Z"/>
   </g>
   <defs>
      <clipPath id="a">
         <path fill="#fff" d="M0 0h1024v1024H0z"/>
      </clipPath>
   </defs>
</svg>

<svg width="1024" height="1024" viewBox="0 0 1024 1024" fill="none" xmlns="http://www.w3.org/2000/svg">
<g clip-path="url(#clip0_2_1461)">
<path d="M512 1024C794.77 1024 1024 794.77 1024 512C1024 229.23 794.77 0 512 0C229.23 0 0 229.23 0 512C0 794.77 229.23 1024 512 1024Z" fill="#70C6BE"/>
<path d="M516.67 248.24C522.26 247.6 528.07 248.85 532.74 252.04C539.77 256.58 544.75 263.52 548.96 270.62C568.05 302.61 587.26 334.52 606.33 366.52C631.73 409.3 657.14 452.08 682.47 494.91C700 524.53 717.57 554.14 735.22 583.69C746.84 603.43 758.83 622.97 769.94 643.01C774.73 651.4 777.36 661.08 776.96 670.77C776.68 678.26 775.32 685.95 771.39 692.44C765.87 701.59 756.63 708.05 746.61 711.42C741.26 713.34 735.65 714.65 729.95 714.66C667.73 714.64 605.52 714.68 543.3 714.67C537.95 714.53 532.51 713.92 527.49 711.98C523.82 710.41 520.2 708.49 517.33 705.67C512.43 700.82 509.25 693.93 510.1 686.94C510.54 682.05 511.74 677.24 513.75 672.76C515.7 668.17 518.45 663.98 520.83 659.61C531.24 641.05 542.13 622.77 553.47 604.76C557.1 599.09 560.26 592.97 565.28 588.36C570.62 583.47 577.32 579.64 584.66 579.14C590.56 578.9 596.36 580.94 601.28 584.1C606.83 587.35 611.2 592.77 612.66 599.09C614.77 607.09 612.5 615.49 609.11 622.8C605.31 631.1 599.88 638.63 596.97 647.33C596.44 649.31 595.72 651.81 597.2 653.55C598.7 654.96 600.78 655.52 602.73 656C608.37 657.26 614.19 656.93 619.93 656.97H683.41C687.6 656.9 691.79 657.11 695.98 656.87C699 656.52 702.3 656.03 704.65 653.92C706.2 652.55 706.39 650.23 705.81 648.35C704.52 644.18 702.3 640.39 700.11 636.65C643.69 540.3 587.59 443.77 530.58 347.76C528.72 344.68 527.12 341.33 524.45 338.84C523.13 337.58 521.18 336.86 519.39 337.38C517.86 337.93 516.83 339.27 515.81 340.47C513.3 343.67 511.05 347.08 508.99 350.59C499.17 366.55 489.77 382.77 480.14 398.85C424.7 492.15 369.26 585.45 313.83 678.75C310.39 685.08 306.73 691.29 302.75 697.29C299.25 702.44 295 707.27 289.52 710.38C283.06 714.11 275.09 715.59 267.85 713.46C262.57 711.83 257.46 709.17 253.68 705.07C248.89 700.33 246.77 693.39 247.02 686.76C247.26 679.77 249.6 672.96 253.12 666.96C286.78 609.79 320.65 552.74 354.65 495.77C372.14 466.24 389.55 436.67 407.14 407.2C424.93 377.34 442.77 347.51 460.48 317.61C470.36 300.77 480.32 283.96 490.7 267.42C493.89 262.18 498.03 257.48 503 253.85C507.08 251.07 511.66 248.68 516.66 248.24H516.67ZM513.84 469.23C522.22 467.88 531.11 469.88 538.06 474.77C543.34 478.84 547 484.95 548.06 491.53C548.78 496.55 548.29 501.76 546.44 506.5C545.02 510.6 542.98 514.47 540.72 518.17C508.39 572.52 476.07 626.87 443.73 681.21C439.59 688.01 435.82 695.07 431.05 701.46C427.58 705.74 423.25 709.38 418.26 711.75C407.69 717.38 393.91 713.95 385.87 705.48C381.8 701.39 379.41 695.78 379.1 690.04C378.64 684.1 379.95 678.09 382.64 672.79C385.01 667.64 387.8 662.7 390.72 657.85C404.93 633.95 419.01 609.96 433.18 586.04C452.57 553.14 472.28 520.42 491.79 487.59C493.86 483.86 496.45 480.41 499.36 477.29C503.28 473.31 508.25 470.1 513.84 469.22V469.23Z" fill="white"/>
</g>
<defs>
<clipPath id="clip0_2_1461">
<rect width="1024" height="1024" fill="white"/>
</clipPath>
</defs>
</svg>
